X: 28740
T: My Friend Sharon
R: jig
M: 6/8
K: Dmajor
dcd f2f|dcd f2f|gfe gfe|cde cBA|
dcd f2f|dcd f2f|gfe ^gfe|a2a a=ge:|
K: Dmin
dAF GAB|ABA d2A|def def|aba age|
fdc dAF|GAB AFD|EFD EFD|EFE D2^c|
dAF GAB|ABA dAF|EFD EFD|A2a age|
fdc dAF|GAB AFD|EFD EFD|EFE D^FA||

